;FLAVOR:Marlin
;TIME:1356
;Filament used: 0.348546m
;Layer height: 0.2
;Generated with Cura_SteamEngine 3.1.0
M190 S60
M104 S200
M109 S200
M82 ; absolute extrusion mode
G28 ;Home
G1 Z15.0 F6000 ;Move the platform down 15mm
;Prime the extruder
G92 E0
G1 F200 E3
G92 E0
;LAYER_COUNT:250
;LAYER:0
M107
G0 F1800 X70.526 Y48.11 Z0.3
;TYPE:SKIRT
G1 X71.009 Y47.486 E0.01336
G1 X71.552 Y46.913 E0.02672
G1 X72.151 Y46.398 E0.0401
G1 X72.799 Y45.947 E0.05346
G1 X73.49 Y45.563 E0.06685
G1 X74.215 Y45.251 E0.08021
G1 X74.968 Y45.014 E0.09357
G1 X75.742 Y44.855 E0.10695
G1 X76.527 Y44.774 E0.12031
G1 X77.017 Y44.764 E0.12861
G1 X79.242 Y44.789 E0.16628
G1 X80.03 Y44.838 E0.17964
G1 X80.809 Y44.967 E0.19301
G1 X81.571 Y45.173 E0.20637
G1 X82.309 Y45.455 E0.21975
G1 X82.75 Y45.667 E0.22803
G1 X83.187 Y45.894 E0.23637
G1 X83.868 Y46.293 E0.24973
G1 X84.506 Y46.759 E0.26311
G1 X85.093 Y47.287 E0.27647
G1 X85.805 Y48.101 E0.29478
G1 X86.044 Y48.416 E0.30148
G1 X86.489 Y49.069 E0.31485
G1 X86.865 Y49.763 E0.32822
G1 X87.278 Y50.815 E0.34735
G1 X87.366 Y51.098 E0.35237
G1 X87.562 Y51.863 E0.36574
G1 X87.68 Y52.644 E0.37911
G1 X87.718 Y53.433 E0.39248
G1 X87.681 Y54.174 E0.40504
G1 X87.633 Y54.664 E0.41338
G1 X87.516 Y55.445 E0.42675
G1 X87.321 Y56.211 E0.44013
G1 X87.05 Y56.952 E0.45349
G1 X86.705 Y57.663 E0.46686
G1 X86.142 Y58.53 E0.48437
G1 X86.135 Y96.532 E1.12772
G1 X86.45 Y96.996 E1.13722
G1 X86.968 Y98.01 E1.15649
G1 X87.084 Y98.285 E1.16154
G1 X87.353 Y99.028 E1.17492
G1 X87.547 Y99.793 E1.18828
G1 X87.662 Y100.575 E1.20166
G1 X87.697 Y101.301 E1.21397
G1 X87.698 Y101.796 E1.22235
G1 X87.66 Y102.585 E1.23572
G1 X87.542 Y103.366 E1.24909
G1 X87.345 Y104.131 E1.26247
G1 X87.073 Y104.872 E1.27583
G1 X86.555 Y105.878 E1.29499
G1 X86.249 Y106.379 E1.30493
G1 X85.803 Y107.031 E1.3183
G1 X85.295 Y107.635 E1.33166
G1 X84.727 Y108.184 E1.34503
G1 X84.107 Y108.673 E1.3584
G1 X83.162 Y109.248 E1.37713
G1 X82.723 Y109.474 E1.38549
G1 X82.004 Y109.799 E1.39885
G1 X81.255 Y110.05 E1.41222
G1 X80.485 Y110.224 E1.42558
G1 X79.701 Y110.32 E1.43896
G1 X79.241 Y110.339 E1.44675
G1 X77.017 Y110.364 E1.4844
G1 X76.228 Y110.332 E1.49777
G1 X75.446 Y110.222 E1.51114
G1 X74.679 Y110.032 E1.52452
G1 X73.935 Y109.767 E1.53789
G1 X73.222 Y109.427 E1.55126
G1 X72.548 Y109.017 E1.56462
G1 X71.918 Y108.541 E1.57799
G1 X71.339 Y108.004 E1.59136
G1 X70.817 Y107.411 E1.60473
G1 X70.359 Y106.768 E1.61809
G1 X69.967 Y106.082 E1.63147
G1 X69.647 Y105.36 E1.64484
G1 X69.402 Y104.609 E1.65821
G1 X69.234 Y103.838 E1.67157
G1 X69.144 Y103.053 E1.68495
G1 X69.129 Y102.564 E1.69323
G1 X69.129 Y52.564 E2.53971
G1 X69.169 Y51.775 E2.55308
G1 X69.288 Y50.995 E2.56644
G1 X69.486 Y50.23 E2.57982
G1 X69.76 Y49.49 E2.59318
G1 X70.108 Y48.781 E2.60655
G1 X70.526 Y48.11 E2.61993
G0 X70.923 Y48.241
G1 X71.404 Y47.641 E2.63295
G1 X71.945 Y47.094 E2.64597
G1 X72.54 Y46.606 E2.659
G1 X73.182 Y46.183 E2.67202
G1 X73.865 Y45.828 E2.68505
G1 X74.58 Y45.547 E2.69806
G1 X75.322 Y45.341 E2.71109
G1 X76.08 Y45.213 E2.72411
G1 X77.012 Y45.164 E2.73991
G1 X79.237 Y45.189 E2.77758
G1 X80.005 Y45.238 E2.79061
G1 X80.763 Y45.366 E2.80362
G1 X81.504 Y45.572 E2.81664
G1 X82.565 Y46.022 E2.83615
G1 X83.002 Y46.249 E2.84449
G1 X83.665 Y46.639 E2.85751
G1 X84.285 Y47.095 E2.87054
G1 X84.853 Y47.613 E2.88355
G1 X85.486 Y48.343 E2.89991
G1 X85.725 Y48.658 E2.90661
G1 X86.158 Y49.294 E2.91963
G1 X86.522 Y49.972 E2.93266
G1 X86.896 Y50.934 E2.95013
G1 X86.984 Y51.217 E2.95515
G1 X87.174 Y51.962 E2.96817
G1 X87.286 Y52.723 E2.98119
G1 X87.318 Y53.492 E2.99422
G1 X87.283 Y54.135 E3.00512
G1 X87.235 Y54.625 E3.01346
G1 X87.12 Y55.386 E3.02648
G1 X86.927 Y56.131 E3.03951
G1 X86.658 Y56.851 E3.05253
G1 X86.315 Y57.54 E3.06556
G1 X85.77 Y58.37 E3.08237
G1 X85.742 Y58.408 E3.08316
G1 X85.735 Y96.654 E3.73065
G1 X86.129 Y97.238 E3.74258
G1 X86.599 Y98.166 E3.76019
G1 X86.715 Y98.441 E3.76524
G1 X86.977 Y99.164 E3.77826
G1 X87.162 Y99.911 E3.79129
G1 X87.269 Y100.672 E3.8043
G1 X87.297 Y101.302 E3.81497
G1 X87.298 Y101.797 E3.82335
G1 X87.26 Y102.565 E3.83637
G1 X87.142 Y103.325 E3.84939
G1 X86.945 Y104.069 E3.86242
G1 X86.673 Y104.788 E3.87544
G1 X86.213 Y105.669 E3.89226
G1 X85.907 Y106.17 E3.9022
G1 X85.473 Y106.805 E3.91522
G1 X84.975 Y107.391 E3.92824
G1 X84.419 Y107.922 E3.94126
G1 X83.81 Y108.393 E3.95429
G1 X82.979 Y108.892 E3.9707
G1 X82.54 Y109.118 E3.97906
G1 X81.839 Y109.434 E3.99208
G1 X81.109 Y109.676 E4.0051
G1 X80.357 Y109.84 E4.01813
G1 X79.236 Y109.939 E4.03718
G1 X77.012 Y109.964 E4.07483
G1 X76.244 Y109.932 E4.08785
G1 X75.483 Y109.821 E4.10087
G1 X74.737 Y109.632 E4.11389
G1 X74.015 Y109.366 E4.12692
G1 X73.325 Y109.027 E4.13994
G1 X72.674 Y108.618 E4.15295
G1 X72.068 Y108.144 E4.16598
G1 X71.515 Y107.609 E4.179
G1 X71.021 Y107.02 E4.19202
G1 X70.59 Y106.382 E4.20505
G1 X70.228 Y105.704 E4.21806
G1 X69.938 Y104.991 E4.23109
G1 X69.724 Y104.253 E4.2441
G1 X69.588 Y103.496 E4.25712
G1 X69.529 Y102.564 E4.27293
G1 X69.529 Y52.564 E5.11941
G1 X69.569 Y51.796 E5.13243
G1 X69.688 Y51.036 E5.14545
G1 X69.886 Y50.293 E5.15847
G1 X70.16 Y49.574 E5.17149
G1 X70.507 Y48.888 E5.18451
G1 X70.923 Y48.241 E5.19753
G0 X71.321 Y48.375
G1 X71.8 Y47.801 E5.21019
G1 X72.337 Y47.28 E5.22286
G1 X72.927 Y46.821 E5.23551
G1 X73.563 Y46.426 E5.24818
G1 X74.237 Y46.102 E5.26085
G1 X74.942 Y45.852 E5.27351
G1 X75.67 Y45.678 E5.28618
G1 X76.412 Y45.583 E5.29884
G1 X77.008 Y45.564 E5.30894
G1 X79.233 Y45.589 E5.34661
G1 X79.979 Y45.638 E5.35927
G1 X80.716 Y45.766 E5.37193
G1 X81.435 Y45.971 E5.38459
G1 X82.381 Y46.377 E5.40202
G1 X82.818 Y46.604 E5.41035
G1 X83.462 Y46.984 E5.42301
G1 X84.063 Y47.43 E5.43568
G1 X84.612 Y47.938 E5.44835
G1 X85.168 Y48.585 E5.46279
G1 X85.407 Y48.9 E5.46948
G1 X85.826 Y49.519 E5.48214
G1 X86.177 Y50.18 E5.49481
G1 X86.514 Y51.052 E5.51063
G1 X86.602 Y51.335 E5.51565
G1 X86.786 Y52.061 E5.52833
G1 X86.891 Y52.801 E5.54098
G1 X86.917 Y53.549 E5.55365
G1 X86.885 Y54.096 E5.56293
G1 X86.837 Y54.586 E5.57127
G1 X86.724 Y55.326 E5.58394
G1 X86.533 Y56.049 E5.5966
G1 X86.266 Y56.748 E5.60927
G1 X85.926 Y57.414 E5.62193
G1 X85.452 Y58.129 E5.63645
G1 X85.342 Y58.275 E5.63954
G1 X85.335 Y96.788 E6.29155
G1 X85.392 Y96.856 E6.29305
G1 X85.806 Y97.479 E6.30571
G1 X86.231 Y98.321 E6.32168
G1 X86.347 Y98.596 E6.32673
G1 X86.6 Y99.3 E6.3394
G1 X86.777 Y100.027 E6.35207
G1 X86.875 Y100.769 E6.36474
G1 X86.897 Y101.303 E6.37379
G1 X86.898 Y101.798 E6.38217
G1 X86.86 Y102.545 E6.39483
G1 X86.742 Y103.284 E6.4075
G1 X86.545 Y104.006 E6.42017
G1 X86.273 Y104.702 E6.43282
G1 X85.872 Y105.461 E6.44735
G1 X85.566 Y105.962 E6.45729
G1 X85.142 Y106.578 E6.46995
G1 X84.656 Y107.146 E6.48261
G1 X84.111 Y107.659 E6.49528
G1 X83.515 Y108.111 E6.50794
G1 X82.796 Y108.537 E6.52209
G1 X82.357 Y108.763 E6.53045
G1 X81.675 Y109.069 E6.5431
G1 X80.963 Y109.301 E6.55578
G1 X80.231 Y109.455 E6.56844
G1 X79.232 Y109.539 E6.58542
G1 X77.008 Y109.564 E6.62307
G1 X76.26 Y109.532 E6.63574
G1 X75.521 Y109.421 E6.6484
G1 X74.797 Y109.231 E6.66107
G1 X74.098 Y108.966 E6.67372
G1 X73.431 Y108.627 E6.68639
G1 X72.804 Y108.219 E6.69905
G1 X72.224 Y107.747 E6.71171
G1 X71.697 Y107.215 E6.72439
G1 X71.231 Y106.63 E6.73705
G1 X70.83 Y105.999 E6.74971
G1 X70.498 Y105.328 E6.76238
G1 X70.24 Y104.626 E6.77505
G1 X70.058 Y103.901 E6.7877
G1 X69.954 Y103.16 E6.80037
G1 X69.929 Y102.564 E6.81047
G1 X69.929 Y52.564 E7.65694
G1 X69.969 Y51.817 E7.66961
G1 X70.088 Y51.079 E7.68226
G1 X70.286 Y50.357 E7.69494
G1 X70.559 Y49.661 E7.70759
G1 X70.906 Y48.998 E7.72026
G1 X71.321 Y48.375 E7.73293
G0 X71.718 Y48.514
G1 X72.194 Y47.966 E7.74522
G1 X72.728 Y47.473 E7.75753
G1 X73.313 Y47.043 E7.76982
G1 X73.942 Y46.679 E7.78212
G1 X74.607 Y46.386 E7.79442
G1 X75.3 Y46.168 E7.80672
G1 X76.012 Y46.028 E7.81901
G1 X77.003 Y45.964 E7.83582
G1 X79.228 Y45.989 E7.87349
G1 X79.953 Y46.038 E7.88579
G1 X80.668 Y46.165 E7.89809
G1 X81.365 Y46.37 E7.91039
G1 X82.196 Y46.732 E7.92573
G1 X82.633 Y46.959 E7.93407
G1 X83.259 Y47.329 E7.94638
G1 X83.839 Y47.765 E7.95866
G1 X84.369 Y48.263 E7.97097
G1 X84.849 Y48.827 E7.98351
G1 X85.088 Y49.142 E7.99021
G1 X85.494 Y49.744 E8.0025
G1 X85.832 Y50.387 E8.0148
G1 X86.132 Y51.171 E8.02901
G1 X86.22 Y51.454 E8.03403
G1 X86.398 Y52.159 E8.04634
G1 X86.496 Y52.878 E8.05862
G1 X86.515 Y53.604 E8.07092
G1 X86.487 Y54.057 E8.0786
G1 X86.439 Y54.547 E8.08693
G1 X86.328 Y55.265 E8.09923
G1 X86.139 Y55.967 E8.11154
G1 X85.875 Y56.643 E8.12383
G1 X85.537 Y57.286 E8.13613
G1 X85.133 Y57.887 E8.14839
G1 X84.942 Y58.14 E8.15375
G1 X84.935 Y96.933 E8.8105
G1 X85.084 Y97.112 E8.81444
G1 X85.483 Y97.719 E8.82674
G1 X85.862 Y98.477 E8.84109
G1 X85.978 Y98.752 E8.84614
G1 X86.223 Y99.436 E8.85844
G1 X86.392 Y100.142 E8.87073
G1 X86.481 Y100.863 E8.88303
G1 X86.497 Y101.304 E8.8905
G1 X86.498 Y101.799 E8.89888
G1 X86.459 Y102.524 E8.91117
G1 X86.342 Y103.241 E8.92347
G1 X86.145 Y103.94 E8.93576
G1 X85.874 Y104.614 E8.94806
G1 X85.53 Y105.252 E8.96033
G1 X85.224 Y105.753 E8.97027
G1 X84.812 Y106.351 E8.98257
G1 X84.337 Y106.901 E8.99487
G1 X83.804 Y107.394 E9.00716
G1 X83.22 Y107.826 E9.01946
G1 X82.613 Y108.181 E9.03136
G1 X82.174 Y108.407 E9.03972
G1 X81.511 Y108.703 E9.05201
G1 X80.819 Y108.925 E9.06432
G1 X80.107 Y109.07 E9.07662
G1 X79.227 Y109.139 E9.09156
G1 X77.003 Y109.164 E9.12922
G1 X76.278 Y109.132 E9.1415
G1 X75.56 Y109.02 E9.1538
G1 X74.859 Y108.831 E9.1661
G1 X74.182 Y108.565 E9.17841
G1 X73.54 Y108.227 E9.19069
G1 X72.938 Y107.82 E9.203
G1 X72.384 Y107.35 E9.2153
G1 X71.886 Y106.822 E9.22758
G1 X71.449 Y106.242 E9.23988
G1 X71.078 Y105.617 E9.25218
G1 X70.778 Y104.956 E9.26447
G1 X70.552 Y104.265 E9.27678
G1 X70.404 Y103.554 E9.28907
G1 X70.329 Y102.564 E9.30588
G1 X70.329 Y52.564 E10.15236
G1 X70.369 Y51.839 E10.16465
G1 X70.488 Y51.122 E10.17695
G1 X70.686 Y50.423 E10.18925
G1 X70.959 Y49.75 E10.20155
G1 X71.304 Y49.111 E10.21384
G1 X71.718 Y48.514 E10.22614
G0 X71.703 Y49.229
G1 X72.114 Y48.658 E10.23805
G1 X72.588 Y48.137 E10.24998
G1 X73.118 Y47.673 E10.2619
G1 X73.697 Y47.273 E10.27382
G1 X74.318 Y46.941 E10.28574
G1 X74.972 Y46.681 E10.29765
G1 X75.652 Y46.497 E10.30958
G1 X76.348 Y46.391 E10.3215
G1 X76.999 Y46.364 E10.33253
G1 X79.224 Y46.389 E10.3702
G1 X79.926 Y46.437 E10.38211
G1 X80.618 Y46.564 E10.39402
G1 X81.292 Y46.769 E10.40595
G1 X82.012 Y47.087 E10.41927
G1 X82.449 Y47.314 E10.42761
G1 X83.054 Y47.673 E10.43952
G1 X83.615 Y48.099 E10.45144
G1 X84.124 Y48.586 E10.46337
G1 X84.53 Y49.068 E10.47404
G1 X84.769 Y49.383 E10.48073
G1 X85.162 Y49.968 E10.49266
G1 X85.486 Y50.592 E10.50457
G1 X85.75 Y51.29 E10.5172
G1 X85.838 Y51.573 E10.52222
G1 X86.009 Y52.256 E10.53414
G1 X86.101 Y52.954 E10.54606
G1 X86.113 Y53.658 E10.55798
G1 X86.088 Y54.018 E10.56409
G1 X86.04 Y54.508 E10.57242
G1 X85.932 Y55.204 E10.58435
G1 X85.746 Y55.883 E10.59627
G1 X85.483 Y56.536 E10.60818
G1 X85.149 Y57.156 E10.62011
G1 X84.814 Y57.646 E10.63015
G1 X84.542 Y58.006 E10.63779
G1 X84.535 Y97.078 E11.29926
G1 X84.775 Y97.368 E11.30564
G1 X85.16 Y97.958 E11.31756
G1 X85.494 Y98.632 E11.3303
G1 X85.61 Y98.907 E11.33535
G1 X85.846 Y99.57 E11.34726
G1 X86.006 Y100.256 E11.35919
G1 X86.097 Y101.304 E11.377
G1 X86.098 Y101.799 E11.38538
G1 X86.059 Y102.502 E11.3973
G1 X85.941 Y103.196 E11.40922
G1 X85.746 Y103.873 E11.42114
G1 X85.474 Y104.522 E11.43306
G1 X85.189 Y105.044 E11.44312
G1 X84.883 Y105.545 E11.45306
G1 X84.483 Y106.124 E11.46498
G1 X84.019 Y106.654 E11.4769
G1 X83.499 Y107.127 E11.4888
G1 X82.928 Y107.539 E11.50072
G1 X82.43 Y107.825 E11.51045
G1 X81.991 Y108.051 E11.5188
G1 X81.348 Y108.338 E11.53073
G1 X80.676 Y108.549 E11.54265
G1 X79.985 Y108.683 E11.55457
G1 X79.223 Y108.739 E11.5675
G1 X76.999 Y108.764 E11.60515
G1 X76.295 Y108.732 E11.61709
G1 X75.6 Y108.62 E11.629
G1 X74.922 Y108.43 E11.64092
G1 X74.27 Y108.165 E11.65284
G1 X73.652 Y107.828 E11.66476
G1 X73.077 Y107.422 E11.67667
G1 X72.551 Y106.954 E11.68859
G1 X72.082 Y106.43 E11.7005
G1 X71.675 Y105.855 E11.71242
G1 X71.335 Y105.238 E11.72435
G1 X71.068 Y104.587 E11.73626
G1 X70.877 Y103.909 E11.74819
G1 X70.763 Y103.215 E11.76009
G1 X70.729 Y102.564 E11.77113
G1 X70.729 Y52.564 E12.6176
G1 X70.769 Y51.861 E12.62952
G1 X70.888 Y51.167 E12.64145
G1 X71.086 Y50.492 E12.65335
G1 X71.358 Y49.843 E12.66527
G1 X71.703 Y49.229 E12.67719
G0 X72.101 Y49.35
G1 X72.511 Y48.806 E12.68872
G1 X72.982 Y48.315 E12.70024
G1 X73.507 Y47.881 E12.71177
G1 X74.079 Y47.512 E12.7233
G1 X74.691 Y47.213 E12.73483
G1 X75.333 Y46.988 E12.74635
G1 X75.998 Y46.839 E12.75788
G1 X76.994 Y46.764 E12.77479
G1 X79.219 Y46.789 E12.81246
G1 X79.898 Y46.837 E12.82399
G1 X80.567 Y46.964 E12.83551
G1 X81.217 Y47.168 E12.84705
G1 X81.828 Y47.442 E12.85838
G1 X82.265 Y47.669 E12.86672
G1 X82.849 Y48.018 E12.87824
G1 X83.389 Y48.433 E12.88977
G1 X83.877 Y48.908 E12.9013
G1 X84.212 Y49.31 E12.91016
G1 X84.451 Y49.625 E12.91685
G1 X84.83 Y50.191 E12.92838
G1 X85.14 Y50.797 E12.93991
G1 X85.368 Y51.409 E12.95096
G1 X85.456 Y51.692 E12.95598
G1 X85.62 Y52.353 E12.96751
G1 X85.705 Y53.028 E12.97903
G1 X85.69 Y53.979 E12.99513
G1 X85.642 Y54.469 E13.00346
G1 X85.536 Y55.142 E13.015
G1 X85.352 Y55.798 E13.02653
G1 X85.093 Y56.427 E13.03805
G1 X84.761 Y57.022 E13.04958
G1 X84.495 Y57.404 E13.05746
G1 X84.142 Y57.871 E13.06738
G1 X84.135 Y97.222 E13.73357
G1 X84.466 Y97.623 E13.74237
G1 X84.835 Y98.196 E13.75391
G1 X85.125 Y98.788 E13.76507
G1 X85.241 Y99.063 E13.77012
G1 X85.468 Y99.705 E13.78165
G1 X85.619 Y100.369 E13.79318
G1 X85.697 Y101.305 E13.80908
G1 X85.698 Y101.8 E13.81746
G1 X85.659 Y102.48 E13.82899
G1 X85.541 Y103.151 E13.84052
G1 X85.346 Y103.803 E13.85205
G1 X85.075 Y104.427 E13.86356
G1 X84.848 Y104.835 E13.87147
G1 X84.542 Y105.336 E13.88141
G1 X84.153 Y105.895 E13.89293
G1 X83.702 Y106.405 E13.90446
G1 X83.194 Y106.859 E13.91599
G1 X82.637 Y107.25 E13.92752
G1 X82.247 Y107.47 E13.9351
G1 X81.808 Y107.696 E13.94346
G1 X81.185 Y107.971 E13.95498
G1 X80.534 Y108.172 E13.96652
G1 X79.865 Y108.295 E13.97803
G1 X79.218 Y108.339 E13.98901
G1 X76.994 Y108.364 E14.02667
G1 X76.314 Y108.331 E14.03819
G1 X75.642 Y108.22 E14.04972
G1 X74.989 Y108.03 E14.06124
G1 X74.361 Y107.765 E14.07278
G1 X73.77 Y107.428 E14.08429
G1 X73.221 Y107.024 E14.09583
G1 X72.724 Y106.559 E14.10736
G1 X72.285 Y106.039 E14.11888
G1 X71.91 Y105.47 E14.13041
G1 X71.604 Y104.862 E14.14194
G1 X71.371 Y104.222 E14.15347
G1 X71.215 Y103.56 E14.16498
G1 X71.129 Y102.564 E14.18191
G1 X71.129 Y52.564 E15.02838
G1 X71.169 Y51.884 E15.03991
G1 X71.288 Y51.214 E15.05143
G1 X71.485 Y50.562 E15.06296
G1 X71.757 Y49.938 E15.07449
G1 X72.101 Y49.35 E15.08602
G0 X72.499 Y49.476
G1 X72.907 Y48.961 E15.09714
G1 X73.374 Y48.499 E15.10827
G1 X73.894 Y48.098 E15.11938
G1 X74.458 Y47.762 E15.1305
G1 X75.06 Y47.498 E15.14163
G1 X75.689 Y47.308 E15.15275
G1 X76.336 Y47.197 E15.16386
G1 X76.99 Y47.164 E15.17495
G1 X79.215 Y47.189 E15.21262
G1 X79.87 Y47.237 E15.22374
G1 X80.515 Y47.363 E15.23486
G1 X81.139 Y47.567 E15.24598
G1 X81.643 Y47.797 E15.25536
G1 X82.08 Y48.024 E15.26369
G1 X82.644 Y48.362 E15.27483
G1 X83.162 Y48.765 E15.28594
G1 X83.628 Y49.229 E15.29707
G1 X83.893 Y49.552 E15.30414
G1 X84.132 Y49.867 E15.31084
G1 X84.496 Y50.414 E15.32196
G1 X84.792 Y51 E15.33307
G1 X84.986 Y51.528 E15.3426
G1 X85.074 Y51.811 E15.34761
G1 X85.231 Y52.449 E15.35874
G1 X85.309 Y53.101 E15.36985
G1 X85.292 Y53.94 E15.38406
G1 X85.244 Y54.43 E15.3924
G1 X85.141 Y55.079 E15.40352
G1 X84.959 Y55.711 E15.41466
G1 X84.702 Y56.315 E15.42577
G1 X84.373 Y56.884 E15.4369
G1 X84.176 Y57.163 E15.44268
G1 X83.818 Y57.636 E15.45272
G1 X83.742 Y57.725 E15.4547
G1 X83.735 Y97.365 E16.12579
G1 X83.74 Y97.37 E16.12591
G1 X84.157 Y97.878 E16.13703
G1 X84.509 Y98.432 E16.14815
G1 X84.756 Y98.943 E16.15775
G1 X84.872 Y99.218 E16.16281
G1 X85.091 Y99.838 E16.17394
G1 X85.232 Y100.48 E16.18507
G1 X85.297 Y101.306 E16.19909
G1 X85.298 Y101.801 E16.20747
G1 X85.259 Y102.457 E16.2186
G1 X85.141 Y103.103 E16.22972
G1 X84.946 Y103.73 E16.24083
G1 X84.675 Y104.329 E16.25196
G1 X84.506 Y104.627 E16.25776
G1 X84.2 Y105.128 E16.2677
G1 X83.824 Y105.667 E16.27883
