; generated by SuperSlicer 2.5.59.13 on 2025-05-11 at 18:25:11 UTC

; 

; external perimeters extrusion width = 0.56mm
; perimeters extrusion width = 0.56mm
; infill extrusion width = 0.56mm
; solid infill extrusion width = 0.56mm
; top infill extrusion width = 0.56mm
; first layer extrusion width = 0.56mm

; external perimeters extrusion width = 0.56mm
; perimeters extrusion width = 0.56mm
; infill extrusion width = 0.56mm
; solid infill extrusion width = 0.56mm
; top infill extrusion width = 0.56mm
; first layer extrusion width = 0.56mm

; external perimeters extrusion width = 0.56mm
; perimeters extrusion width = 0.56mm
; infill extrusion width = 0.56mm
; solid infill extrusion width = 0.56mm
; top infill extrusion width = 0.56mm
; first layer extrusion width = 0.56mm

; external perimeters extrusion width = 0.56mm
; perimeters extrusion width = 0.56mm
; infill extrusion width = 0.56mm
; solid infill extrusion width = 0.56mm
; top infill extrusion width = 0.56mm
; first layer extrusion width = 0.56mm

; external perimeters extrusion width = 0.56mm
; perimeters extrusion width = 0.56mm
; infill extrusion width = 0.56mm
; solid infill extrusion width = 0.56mm
; top infill extrusion width = 0.56mm
; first layer extrusion width = 0.56mm

; object:{"name":"patch_bed_leveling","id":"patch_bed_leveling id:0 copy 0","object_center":[20.000000,150.000000,0.000000],"boundingbox_center":[20.000000,150.000000,1.486537],"boundingbox_size":[10.000060,21.433014,2.973075]}
; object:{"name":"patch_bed_leveling","id":"patch_bed_leveling id:1 copy 0","object_center":[150.000000,20.000000,0.000000],"boundingbox_center":[150.000000,20.000000,1.486537],"boundingbox_size":[10.000060,21.433014,2.973075]}
; object:{"name":"patch_bed_leveling","id":"patch_bed_leveling id:2 copy 0","object_center":[85.000000,85.000000,0.000000],"boundingbox_center":[85.000000,85.000000,1.486537],"boundingbox_size":[22.226500,22.226500,2.973075]}
; object:{"name":"patch_bed_leveling","id":"patch_bed_leveling id:3 copy 0","object_center":[20.000000,20.000000,0.000000],"boundingbox_center":[20.000000,20.000000,1.486537],"boundingbox_size":[21.433014,10.000060,2.973075]}
; object:{"name":"patch_bed_leveling","id":"patch_bed_leveling id:4 copy 0","object_center":[150.000000,150.000000,0.000000],"boundingbox_center":[150.000000,150.000000,1.486537],"boundingbox_size":[21.433014,10.000060,2.973075]}
; plater:{"center":[85.000000,85.000000,0.000000],"boundingbox_center":[85.000000,85.000000,1.486537],"boundingbox_size":[151.433014,151.433014,2.973075]}

M127
M140 S60 ; set bed temperature
M104 S195 T0 ; set temperature
;TYPE:Custom
G28 ; home all axes
G1 Z5 F5000 ; lift nozzle

M127
; Filament gcode
M109 S60 ; set bed temperature and wait for it to be reached
;LAYER_CHANGE
;Z:0.3
;HEIGHT:0.3
M73 P0
G1 Z0.3 F7800
G1 E-2.000000 F2400
M103 ; extruder off
G1 X6.368 Y9.542 F7800
M101 ; extruder on
G1 E0.000000 F2400
;TYPE:Skirt
;WIDTH:0.44
M127
G1 F1800
G1 X4.632 Y10.919 E0.03533
G1 X3.492 Y12.82 E0.07065
G1 X3.096 Y15 E0.10597
G1 X3.101 Y25.26 E0.26955
G1 X8.818 Y160.977 E2.43503
G1 X9.542 Y163.632 E2.4789
G1 X10.919 Y165.368 E2.51423
G1 X12.82 Y166.508 E2.54956
G1 X15 Y166.904 E2.58488
G1 X25.26 Y166.899 E2.74845
G1 X160.977 Y161.182 E4.91393
G1 X163.632 Y160.458 E4.95781
G1 X165.368 Y159.081 E4.99313
G1 X166.508 Y157.18 E5.02846
G1 X166.904 Y155 E5.06379
G1 X166.899 Y144.74 E5.22736
G1 X161.182 Y9.023 E7.39283
G1 X160.458 Y6.368 E7.43672
G1 X159.081 Y4.632 E7.47204
G1 X157.18 Y3.492 E7.50736
G1 X155 Y3.096 E7.54269
G1 X144.74 Y3.101 E7.70626
G1 X9.023 Y8.818 E9.87174
G1 X6.426 Y9.526 E9.91466
M127
G1 E7.91466 F2400
M103 ; extruder off
; printing object patch_bed_leveling id:0 copy 0
G1 X24.72 Y160.437 F7800
M101 ; extruder on
G1 E9.91466 F2400
;TYPE:External perimeter
;WIDTH:0.56
M127
G1 F1800
G1 X15.28 Y160.437 E10.11323
G1 X15.28 Y140.361 E10.5355
G1 X24.72 Y140.361 E10.73407
G1 X24.72 Y150.399 E10.94521
G1 X24.72 Y160.377 E11.15508
M127
;WIPE_START
G1 X24.374 Y160.237 F7800
;WIPE_END
G1 X24.348 Y160.288
M101 ; extruder on
;TYPE:Solid infill
;WIDTH:0.545123
M127
G1 F1800
G1 X24.348 Y140.723 E11.55569
G1 X23.853 Y140.723 E11.56583
G1 X23.853 Y160.075 E11.96207
G1 X23.357 Y160.075 E11.97222
G1 X23.357 Y140.723 E12.36846
G1 X22.861 Y140.723 E12.37861
G1 X22.861 Y160.075 E12.77485
G1 X22.366 Y160.075 E12.78499
G1 X22.366 Y140.723 E13.18124
G1 X21.87 Y140.723 E13.19138
G1 X21.87 Y160.075 E13.58762
G1 X21.375 Y160.075 E13.59777
G1 X21.375 Y140.723 E13.99401
G1 X20.879 Y140.723 E14.00416
G1 X20.879 Y160.075 E14.4004
G1 X20.383 Y160.075 E14.41054
G1 X20.383 Y140.723 E14.80679
G1 X19.888 Y140.723 E14.81693
G1 X19.888 Y160.075 E15.21318
G1 X19.392 Y160.075 E15.22332
G1 X19.392 Y140.723 E15.61956
G1 X18.896 Y140.723 E15.62971
G1 X18.896 Y160.075 E16.02594
G1 X18.401 Y160.075 E16.0361
G1 X18.401 Y140.723 E16.43234
G1 X17.905 Y140.723 E16.44248
G1 X17.905 Y160.075 E16.83872
G1 X17.41 Y160.075 E16.84887
G1 X17.41 Y140.723 E17.24511
G1 X16.914 Y140.723 E17.25526
G1 X16.914 Y160.075 E17.6515
G1 X16.418 Y160.075 E17.66165
G1 X16.418 Y140.723 E18.05788
G1 X15.923 Y140.723 E18.06804
G1 X15.923 Y160.288 E18.46864
M127
G1 X15.601 Y160.189 F7800
M101 ; extruder on
;TYPE:Gap fill
;WIDTH:0.205864
M127
G1 F1800
G1 X15.601 Y140.609 E18.58762
M127
G1 E16.58763 F2400
M103 ; extruder off
; stop printing object patch_bed_leveling id:0 copy 0
; printing object patch_bed_leveling id:2 copy 0
G1 X89.042 Y95.717 F7800
M101 ; extruder on
G1 E18.58763 F2400
;TYPE:External perimeter
;WIDTH:0.56
M127
G1 F1800
G1 X74.847 Y81.522 E19.0099
G1 X81.522 Y74.847 E19.20847
G1 X95.717 Y89.042 E19.63074
G1 X89.085 Y95.675 E19.82805
M127
;WIPE_START
G1 X88.939 Y95.331 F7800
;WIPE_END
G1 X89.392 Y95.158
M101 ; extruder on
;TYPE:Solid infill
;WIDTH:0.545123
M127
G1 F1800
G1 X75.557 Y81.323 E20.22865
G1 X75.908 Y80.973 E20.2388
G1 X89.591 Y94.657 E20.63503
G1 X89.942 Y94.306 E20.64519
G1 X76.258 Y80.622 E21.04143
G1 X76.609 Y80.272 E21.05157
G1 X90.292 Y93.956 E21.44781
G1 X90.643 Y93.605 E21.45796
G1 X76.959 Y79.922 E21.8542
G1 X77.31 Y79.571 E21.86435
G1 X90.993 Y93.255 E22.26059
G1 X91.344 Y92.904 E22.27074
G1 X77.66 Y79.221 E22.66697
G1 X78.01 Y78.87 E22.67712
G1 X91.694 Y92.554 E23.07337
G1 X92.044 Y92.203 E23.08351
G1 X78.361 Y78.52 E23.47975
G1 X78.711 Y78.169 E23.4899
G1 X92.395 Y91.853 E23.88614
G1 X92.745 Y91.502 E23.89628
G1 X79.062 Y77.819 E24.29253
G1 X79.412 Y77.468 E24.30267
G1 X93.096 Y91.152 E24.69891
G1 X93.446 Y90.802 E24.70907
G1 X79.763 Y77.118 E25.1053
G1 X80.113 Y76.767 E25.11545
G1 X93.797 Y90.451 E25.51168
G1 X94.147 Y90.101 E25.52184
G1 X80.464 Y76.417 E25.91808
G1 X80.814 Y76.067 E25.92822
G1 X94.498 Y89.75 E26.32446
G1 X94.848 Y89.4 E26.33461
G1 X81.165 Y75.716 E26.73085
G1 X81.515 Y75.366 E26.741
G1 X95.349 Y89.2 E27.14161
M127
G1 E25.1416 F2400
M103 ; extruder off
G1 X89.094 Y95.315 F7800
M101 ; extruder on
G1 E27.1416 F2400
;TYPE:Gap fill
;WIDTH:0.205867
M127
G1 F1800
G1 X75.249 Y81.47 E27.26059
M127
G1 E25.26059 F2400
M103 ; extruder off
; stop printing object patch_bed_leveling id:2 copy 0
; printing object patch_bed_leveling id:4 copy 0
G1 X160.437 Y145.28 F7800
M101 ; extruder on
G1 E27.26059 F2400
;TYPE:External perimeter
;WIDTH:0.56
M127
G1 F1800
G1 X160.437 Y154.72 E27.45916
G1 X140.361 Y154.72 E27.88144
G1 X140.361 Y145.28 E28.08
G1 X160.377 Y145.28 E28.50102
M127
;WIPE_START
G1 X160.237 Y145.626 F7800
;WIPE_END
G1 X160.288 Y145.652
M101 ; extruder on
;TYPE:Solid infill
;WIDTH:0.545123
M127
G1 F1800
G1 X140.723 Y145.652 E28.90161
G1 X140.723 Y146.147 E28.91177
G1 X160.075 Y146.147 E29.308
G1 X160.075 Y146.643 E29.31816
G1 X140.723 Y146.643 E29.71439
G1 X140.723 Y147.139 E29.72454
G1 X160.075 Y147.139 E30.12078
G1 X160.075 Y147.634 E30.13093
G1 X140.723 Y147.634 E30.52717
G1 X140.723 Y148.13 E30.53731
G1 X160.075 Y148.13 E30.93356
G1 X160.075 Y148.625 E30.9437
G1 X140.723 Y148.625 E31.33995
G1 X140.723 Y149.121 E31.35009
G1 X160.075 Y149.121 E31.74633
G1 X160.075 Y149.617 E31.75648
G1 X140.723 Y149.617 E32.15272
G1 X140.723 Y150.112 E32.16286
G1 X160.075 Y150.112 E32.55911
G1 X160.075 Y150.608 E32.56925
G1 X140.723 Y150.608 E32.9655
G1 X140.723 Y151.104 E32.97564
G1 X160.075 Y151.104 E33.37188
G1 X160.075 Y151.599 E33.38203
G1 X140.723 Y151.599 E33.77827
G1 X140.723 Y152.095 E33.78841
G1 X160.075 Y152.095 E34.18466
G1 X160.075 Y152.59 E34.1948
G1 X140.723 Y152.59 E34.59105
G1 X140.723 Y153.086 E34.60119
G1 X160.075 Y153.086 E34.99743
G1 X160.075 Y153.582 E35.00758
G1 X140.723 Y153.582 E35.40382
G1 X140.723 Y154.077 E35.41397
G1 X160.288 Y154.077 E35.81457
M127
G1 X160.189 Y154.399 F7800
M101 ; extruder on
;TYPE:Gap fill
;WIDTH:0.205864
M127
G1 F1800
G1 X140.609 Y154.399 E35.93356
M127
G1 E33.93356 F2400
M103 ; extruder off
; stop printing object patch_bed_leveling id:4 copy 0
; printing object patch_bed_leveling id:1 copy 0
G1 X154.72 Y9.563 F7800
M101 ; extruder on
G1 E35.93356 F2400
;TYPE:External perimeter
;WIDTH:0.56
M127
G1 F1800
G1 X154.72 Y19.601 E36.1447
G1 X154.72 Y29.639 E36.35583
G1 X145.28 Y29.639 E36.5544
G1 X145.28 Y9.563 E36.97668
G1 X154.66 Y9.563 E37.17398
M127
;WIPE_START
G1 X154.52 Y9.91 F7800
;WIPE_END
G1 E35.17398 F2400
M103 ; extruder off
G1 X154.348 Y29.49 F7800
M101 ; extruder on
G1 E37.17398 F2400
;TYPE:Solid infill
;WIDTH:0.545123
M127
G1 F1800
G1 X154.348 Y9.925 E37.57458
G1 X153.853 Y9.925 E37.58474
G1 X153.853 Y29.277 E37.98097
G1 X153.357 Y29.277 E37.99112
G1 X153.357 Y9.925 E38.38735
G1 X152.861 Y9.925 E38.39751
G1 X152.861 Y29.277 E38.79375
G1 X152.366 Y29.277 E38.80389
G1 X152.366 Y9.925 E39.20014
G1 X151.87 Y9.925 E39.21028
G1 X151.87 Y29.277 E39.60652
G1 X151.375 Y29.277 E39.61667
G1 X151.375 Y9.925 E40.01291
G1 X150.879 Y9.925 E40.02305
G1 X150.879 Y29.277 E40.4193
G1 X150.383 Y29.277 E40.42945
G1 X150.383 Y9.925 E40.82568
G1 X149.888 Y9.925 E40.83583
G1 X149.888 Y29.277 E41.23207
G1 X149.392 Y29.277 E41.24222
G1 X149.392 Y9.925 E41.63846
G1 X148.896 Y9.925 E41.64861
G1 X148.896 Y29.277 E42.04485
G1 X148.401 Y29.277 E42.05499
G1 X148.401 Y9.925 E42.45123
G1 X147.905 Y9.925 E42.46139
G1 X147.905 Y29.277 E42.85762
G1 X147.41 Y29.277 E42.86777
G1 X147.41 Y9.925 E43.26401
G1 X146.914 Y9.925 E43.27415
G1 X146.914 Y29.277 E43.6704
G1 X146.418 Y29.277 E43.68055
G1 X146.418 Y9.925 E44.07678
G1 X145.923 Y9.925 E44.08693
G1 X145.923 Y29.49 E44.48754
M127
G1 E42.48754 F2400
M103 ; extruder off
G1 X145.601 Y9.811 F7800
M101 ; extruder on
G1 E44.48754 F2400
;TYPE:Gap fill
;WIDTH:0.205865
M127
G1 F1800
G1 X145.601 Y29.391 E44.60653
M127
G1 E42.60653 F2400
M103 ; extruder off
; stop printing object patch_bed_leveling id:1 copy 0
; printing object patch_bed_leveling id:3 copy 0
G1 X29.639 Y24.72 F7800
M101 ; extruder on
G1 E44.60653 F2400
;TYPE:External perimeter
;WIDTH:0.56
M127
G1 F1800
G1 X9.563 Y24.72 E45.0288
G1 X9.563 Y15.28 E45.22737
G1 X19.601 Y15.28 E45.4385
G1 X29.639 Y15.28 E45.64965
G1 X29.639 Y24.66 E45.84694
M127
;WIPE_START
G1 X29.292 Y24.52 F7800
;WIPE_END
G1 X29.49 Y24.077
M101 ; extruder on
;TYPE:Solid infill
;WIDTH:0.545123
M127
G1 F1800
G1 X9.925 Y24.077 E46.24755
G1 X9.925 Y23.582 E46.2577
G1 X29.277 Y23.582 E46.65394
G1 X29.277 Y23.086 E46.66408
G1 X9.925 Y23.086 E47.06033
G1 X9.925 Y22.59 E47.07047
G1 X29.277 Y22.59 E47.46671
G1 X29.277 Y22.095 E47.47686
G1 X9.925 Y22.095 E47.8731
G1 X9.925 Y21.599 E47.88325
G1 X29.277 Y21.599 E48.27949
G1 X29.277 Y21.104 E48.28963
G1 X9.925 Y21.104 E48.68588
G1 X9.925 Y20.608 E48.69602
G1 X29.277 Y20.608 E49.09226
G1 X29.277 Y20.112 E49.10242
G1 X9.925 Y20.112 E49.49865
G1 X9.925 Y19.617 E49.50879
G1 X29.277 Y19.617 E49.90504
G1 X29.277 Y19.121 E49.91519
G1 X9.925 Y19.121 E50.31142
G1 X9.925 Y18.625 E50.32158
G1 X29.277 Y18.625 E50.71781
G1 X29.277 Y18.13 E50.72796
G1 X9.925 Y18.13 E51.1242
G1 X9.925 Y17.634 E51.13435
G1 X29.277 Y17.634 E51.53059
G1 X29.277 Y17.139 E51.54074
G1 X9.925 Y17.139 E51.93697
G1 X9.925 Y16.643 E51.94713
G1 X29.277 Y16.643 E52.34336
G1 X29.277 Y16.147 E52.35351
G1 X9.925 Y16.147 E52.74975
G1 X9.925 Y15.652 E52.7599
G1 X29.49 Y15.652 E53.16051
M127
G1 E51.1605 F2400
M103 ; extruder off
G1 X9.811 Y24.399 F7800
M101 ; extruder on
G1 E53.1605 F2400
;TYPE:Gap fill
;WIDTH:0.205864
M127
G1 F1800
G1 X29.391 Y24.399 E53.27949
M127
M126 T
;LAYER_CHANGE
;Z:0.5
;HEIGHT:0.2
M73 P7
; stop printing object patch_bed_leveling id:3 copy 0
G1 Z0.5 F7800
G1 E51.27949 F2400
M103 ; extruder off
; printing object patch_bed_leveling id:0 copy 0
G1 X15.221 Y140.918 F7800
M101 ; extruder on
G1 E53.27949 F2400
;TYPE:External perimeter
;WIDTH:0.44292
M126 T
G1 F1800
G1 X15.221 Y140.207 E53.28755
G1 X24.779 Y140.207 E53.39571
G1 X24.779 Y140.918 E53.40377
G1 X15.281 Y140.918 E53.51125
M126 T
;WIPE_START
G1 X15.421 Y140.572 F7800
;WIPE_END
G1 E51.51125 F2400
M103 ; extruder off
; stop printing object patch_bed_leveling id:0 copy 0
; printing object patch_bed_leveling id:2 copy 0
G1 X81.957 Y75.199 F7800
M101 ; extruder on
G1 E53.51125 F2400
M126 T
G1 F1800
G1 X75.199 Y81.957 E53.61942
G1 X74.696 Y81.454 E53.62747
G1 X81.454 Y74.696 E53.73563
G1 X81.706 Y74.948 E53.73966
G1 X81.915 Y75.157 E53.74302
M126 T
;WIPE_START
G1 X81.571 Y75.303 F7800
;WIPE_END
G1 E51.74301 F2400
M103 ; extruder off
; stop printing object patch_bed_leveling id:2 copy 0
; printing object patch_bed_leveling id:4 copy 0
G1 X140.918 Y154.779 F7800
M101 ; extruder on
G1 E53.74301 F2400
M126 T
G1 F1800
G1 X140.207 Y154.779 E53.75107
G1 X140.207 Y145.221 E53.85923
G1 X140.918 Y145.221 E53.86728
G1 X140.918 Y154.719 E53.97477
M126 T
;WIPE_START
G1 X140.572 Y154.579 F7800
;WIPE_END
G1 E51.97477 F2400
M103 ; extruder off
; stop printing object patch_bed_leveling id:4 copy 0
; printing object patch_bed_leveling id:1 copy 0
G1 X145.221 Y29.082 F7800
M101 ; extruder on
G1 E53.97477 F2400
M126 T
G1 F1800
G1 X154.779 Y29.082 E54.08293
G1 X154.779 Y29.793 E54.09099
G1 X145.221 Y29.793 E54.19916
G1 X145.221 Y29.142 E54.20653
M126 T
;WIPE_START
G1 X145.568 Y29.282 F7800
;WIPE_END
G1 E52.20653 F2400
M103 ; extruder off
; stop printing object patch_bed_leveling id:1 copy 0
; printing object patch_bed_leveling id:3 copy 0
G1 X29.082 Y15.221 F7800
M101 ; extruder on
G1 E54.20653 F2400
M126 T
G1 F1800
G1 X29.793 Y15.221 E54.21458
G1 X29.793 Y24.779 E54.32275
G1 X29.082 Y24.779 E54.33081
G1 X29.082 Y15.281 E54.43829
M126 T
;WIPE_START
G1 X29.428 Y15.421 F7800
;WIPE_END
M126 T
;LAYER_CHANGE
;Z:0.7
;HEIGHT:0.2
M73 P14
; stop printing object patch_bed_leveling id:3 copy 0
G1 Z0.7 F7800
G1 E52.43829 F2400
M103 ; extruder off
; printing object patch_bed_leveling id:0 copy 0
G1 X15.221 Y140.841 F7800
M101 ; extruder on
G1 E54.43829 F2400
M126 T
G1 F1800
G1 X15.221 Y140.13 E54.44634
G1 X24.779 Y140.13 E54.55451
G1 X24.779 Y140.841 E54.56256
G1 X15.281 Y140.841 E54.67005
M126 T
;WIPE_START
G1 X15.421 Y140.495 F7800
;WIPE_END
G1 E52.67005 F2400
M103 ; extruder off
; stop printing object patch_bed_leveling id:0 copy 0
; printing object patch_bed_leveling id:2 copy 0
G1 X75.145 Y81.903 F7800
M101 ; extruder on
G1 E54.67005 F2400
M126 T
G1 F1800
G1 X74.642 Y81.4 E54.6781
G1 X81.4 Y74.642 E54.78627
G1 X81.651 Y74.893 E54.79029
G1 X81.903 Y75.145 E54.79433
G1 X75.187 Y81.86 E54.9018
M126 T
;WIPE_START
G1 X75.041 Y81.516 F7800
;WIPE_END
G1 E52.90181 F2400
M103 ; extruder off
; stop printing object patch_bed_leveling id:2 copy 0
; printing object patch_bed_leveling id:4 copy 0
G1 X140.841 Y154.779 F7800
M101 ; extruder on
G1 E54.90181 F2400
M126 T
G1 F1800
G1 X140.13 Y154.779 E54.90986
G1 X140.13 Y145.221 E55.01803
G1 X140.841 Y145.221 E55.02608
G1 X140.841 Y154.719 E55.13357
M126 T
;WIPE_START
G1 X140.495 Y154.579 F7800
;WIPE_END
G1 E53.13357 F2400
M103 ; extruder off
; stop printing object patch_bed_leveling id:4 copy 0
; printing object patch_bed_leveling id:1 copy 0
G1 X145.221 Y29.159 F7800
M101 ; extruder on
G1 E55.13357 F2400
M126 T
G1 F1800
G1 X154.779 Y29.159 E55.24173
G1 X154.779 Y29.87 E55.24978
G1 X145.221 Y29.87 E55.35795
G1 X145.221 Y29.219 E55.36533
M126 T
;WIPE_START
G1 X145.568 Y29.359 F7800
;WIPE_END
G1 E53.36533 F2400
